X:6
T:Coleman's Jig
K:D
M:6/8
L:1/8
e|fdB Bcd|ecA BAG|FGA ABc|dcd efg|
fdB Bcd|ecA BAG|FGA Aag|fdc d2 :|
|: B|Adf Adf|gfg efg|afd dcd|Aed cBA|
|1 Adf Adf|gfg efg aga bge|edc d2 :|
|2 fdB gec|aga bge|aga bge|edc d2 ||
